; generated by Slic3r 1.2.9 on 2017-11-04 at 03:31:11

; external perimeters extrusion width = 0.40mm
; perimeters extrusion width = 0.48mm
; infill extrusion width = 0.48mm
; solid infill extrusion width = 0.48mm
; top infill extrusion width = 0.48mm
; support material extrusion width = 0.40mm

M107
G90
M83
G28
G1 Z10
M190 S80
G1 Z0.4
G92 E0
M109 S230
G21 ; set units to millimeters
G90 ; use absolute coordinates
M83 ; use relative distances for extrusion
G1 E-1.00000 F1800.00000
G1 Z2.000 F7800.000
G1 X46.367 Y77.517 F7800.000
G1 Z0.350 F7800.000
G1 E1.00000 F1800.00000
G1 X47.768 Y76.857 E0.14249 F1440.000
G1 X49.448 Y76.295 E0.16294
G1 X50.397 Y76.053 E0.09009
G1 X104.088 Y66.553 E5.01504
G1 X105.220 Y66.451 E0.10458
G1 X106.621 Y66.447 E0.12879
G1 X108.276 Y66.651 E0.15341
G1 X109.704 Y67.018 E0.13556 F1440.000
G1 X140.272 Y75.758 E2.92430
G1 X140.914 Y75.978 E0.06244
G1 X142.079 Y76.444 E0.11535
G1 X144.423 Y78.037 E0.26070
G1 X145.338 Y79.001 E0.12226
G1 X146.512 Y80.713 E0.19092
G1 X147.193 Y82.144 E0.14576
G1 X147.615 Y83.298 E0.11302
G1 X148.098 Y85.124 E0.17377
G1 X148.255 Y85.905 E0.07325
G1 X148.558 Y88.089 E0.20282
G1 X148.616 Y89.242 E0.10617
G1 X148.585 Y90.100 E0.07893
G1 X148.424 Y91.329 E0.11403
G1 X147.888 Y93.682 E0.22195
G1 X147.000 Y95.796 E0.21095
G1 X146.096 Y96.913 E0.13210
G1 X144.022 Y98.971 E0.26875
G1 X142.396 Y100.155 E0.18502
G1 X140.510 Y101.130 E0.19531
G1 X139.016 Y101.686 E0.14657
G1 X135.838 Y102.449 E0.30069
G1 X133.600 Y102.849 E0.20904
G1 X130.170 Y103.268 E0.31783
G1 X125.811 Y103.521 E0.40165
G1 X121.148 Y103.597 E0.42893
G1 X115.453 Y103.505 E0.52389
G1 X111.329 Y103.366 E0.37956
G1 X107.151 Y103.175 E0.38463
G1 X97.578 Y102.711 E0.88155
G1 X93.330 Y102.478 E0.39131
G1 X87.894 Y102.067 E0.50144
G1 X83.821 Y101.699 E0.37617
G1 X77.024 Y100.973 E0.62866
G1 X71.659 Y100.300 E0.49740
G1 X67.670 Y99.729 E0.37055
G1 X66.214 Y99.507 E0.13551
G1 X62.237 Y98.839 E0.37093
G1 X60.854 Y98.582 E0.12933
G1 X56.740 Y97.746 E0.38614
G1 X53.009 Y96.807 E0.35388
G1 X51.359 Y96.282 E0.15930
G1 X49.804 Y95.744 E0.15135
G1 X48.636 Y95.284 E0.11541
G1 X47.914 Y94.947 E0.07328
G1 X46.815 Y94.352 E0.11501
G1 X46.236 Y94.000 E0.06226
G1 X45.195 Y93.290 E0.11599
G1 X43.453 Y91.548 E0.22657
G1 X42.647 Y90.366 E0.13154
G1 X41.870 Y88.831 E0.15829
G1 X41.634 Y88.157 E0.06564
G1 X41.259 Y85.895 E0.21095
G1 X41.748 Y83.461 E0.22832
G1 X42.613 Y81.340 E0.21066
G1 X43.833 Y79.398 E0.21095
G1 X45.243 Y78.218 E0.16910
G1 X46.316 Y77.549 E0.11633
G1 E-1.00000 F1800.00000
G1 Z2.350 F7800.000
G1 X132.506 Y85.144 F7800.000
G1 Z0.350 F7800.000
G1 E1.00000 F1800.00000
G1 X132.796 Y84.958 E0.03165 F1440.000
G1 X134.885 Y80.791 E0.42872
G1 X136.755 Y80.170 E0.18131
G1 X136.867 Y80.104 E0.01193
G1 X137.039 Y79.950 E0.02123
G1 X138.063 Y79.561 E0.10077
G1 X138.886 Y79.569 E0.07567
G1 X141.127 Y80.467 E0.22207
G1 X141.770 Y81.121 E0.08441
G1 X141.805 Y81.213 E0.00904
G1 X141.932 Y81.370 E0.01854
G1 X142.457 Y81.705 E0.05736
G1 X143.643 Y84.198 E0.25391
G1 X143.751 Y84.686 E0.04589
G1 X143.747 Y85.032 E0.03189
G1 X143.839 Y85.262 E0.02279
G1 X144.071 Y85.501 E0.03060
G1 X144.539 Y88.868 E0.31268
G1 X144.535 Y89.198 E0.03036
G1 X144.464 Y89.628 E0.04013
G1 X144.362 Y89.942 E0.03036
G1 X141.217 Y96.216 E0.64548
G1 X139.582 Y96.760 E0.15854
G1 X139.435 Y96.861 E0.01643
G1 X139.294 Y97.035 E0.02055
G1 X138.798 Y97.428 E0.05818
G1 X138.369 Y97.637 E0.04395
G1 X135.634 Y98.294 E0.25867
G1 X135.400 Y98.303 E0.02156
G1 X135.063 Y98.448 E0.03373
G1 X132.373 Y98.921 E0.25122
G1 X132.301 Y98.892 E0.00719
G1 X132.064 Y98.891 E0.02174
G1 X131.931 Y98.943 E0.01320
G1 X129.276 Y99.273 E0.24601
G1 X129.185 Y99.233 E0.00917
G1 X128.952 Y99.222 E0.02145
G1 X128.864 Y99.251 E0.00859
G1 X126.214 Y99.411 E0.24412
G1 X126.032 Y99.395 E0.01685
G1 X125.890 Y99.437 E0.01364
G1 X120.494 Y99.522 E0.49632
G1 X120.246 Y99.489 E0.02307
G1 X117.437 Y99.464 E0.25837
G1 X114.800 Y99.401 E0.24256
G1 X111.882 Y99.299 E0.26855
G1 X98.221 Y98.652 E1.25793
G1 X92.895 Y98.362 E0.49058
G1 X92.836 Y98.343 E0.00570
G1 X90.034 Y98.140 E0.25847
G1 X87.435 Y97.929 E0.23979
G1 X84.636 Y97.672 E0.25857
G1 X79.290 Y97.119 E0.49431
G1 X76.718 Y96.823 E0.23808
G1 X71.432 Y96.147 E0.49017
G1 X66.187 Y95.369 E0.48768
G1 X63.466 Y94.909 E0.25390
G1 X60.978 Y94.449 E0.23265
G1 X58.333 Y93.905 E0.24840
G1 X58.217 Y93.902 E0.01072
G1 X53.364 Y92.681 E0.46028
G1 X53.239 Y92.604 E0.01343
G1 X50.817 Y91.779 E0.23535
G1 X50.776 Y91.740 E0.00525
G1 X50.586 Y91.654 E0.01913
G1 X50.381 Y91.634 E0.01898
G1 X48.261 Y90.487 E0.22171
G1 X48.147 Y90.349 E0.01643
G1 X48.042 Y90.266 E0.01235
G1 X47.270 Y89.891 E0.07890
G1 X45.806 Y87.743 E0.23909
G1 X45.615 Y87.190 E0.05378
G1 X45.563 Y86.417 E0.07131
G1 X45.678 Y85.844 E0.05378
G1 X48.010 Y81.192 E0.47855
G1 X49.884 Y80.569 E0.18170
G1 X50.013 Y80.559 E0.01187
G1 X50.334 Y80.324 E0.03657
G1 X50.816 Y80.124 E0.04801
G1 X53.493 Y79.703 E0.24927
G1 X53.712 Y79.793 E0.02174
G1 X53.927 Y79.804 E0.01985
G1 X54.038 Y79.771 E0.01062
G1 X56.619 Y79.717 E0.23745
G1 X56.699 Y79.759 E0.00832
G1 X56.928 Y79.789 E0.02125
G1 X56.974 Y79.778 E0.00438
G1 X59.516 Y79.909 E0.23413
G1 X59.732 Y79.946 E0.02012
G1 X59.779 Y79.936 E0.00448
G1 X62.487 Y80.184 E0.25004
G1 X67.666 Y80.810 E0.47987
G1 X70.405 Y81.200 E0.25445
G1 X80.778 Y82.750 E0.96468
G1 X83.322 Y83.088 E0.23609
G1 X83.408 Y83.118 E0.00837
G1 X85.713 Y83.274 E0.21251
G1 X87.938 Y82.973 E0.20647
G1 X91.153 Y81.429 E0.32803
G1 X91.301 Y81.284 E0.01911
G1 X91.560 Y80.767 E0.05314
G1 X93.109 Y80.252 E0.15019
G1 X93.297 Y80.090 E0.02287
G1 X94.221 Y78.246 E0.18964
G1 X95.771 Y77.731 E0.15019
G1 X95.959 Y77.569 E0.02287
G1 X97.503 Y74.488 E0.31695
G1 X97.644 Y74.273 E0.02363
G1 X97.863 Y74.014 E0.03122
G1 X98.050 Y73.838 E0.02363
G1 X101.240 Y71.478 E0.36494
G1 X101.856 Y71.498 E0.05670
G1 X102.061 Y71.432 E0.01975
G1 X102.423 Y71.157 E0.04182
G1 X102.881 Y70.952 E0.04614
G1 X105.584 Y70.425 E0.25334
G1 X105.884 Y70.539 E0.02958
G1 X106.025 Y70.559 E0.01310
G1 X106.786 Y70.490 E0.07023
G1 X109.152 Y71.092 E0.22452
G1 X109.808 Y71.627 E0.07788
G1 X110.551 Y71.973 E0.07538
G1 X112.051 Y74.075 E0.23750
G1 X112.255 Y74.636 E0.05488
G1 X112.277 Y74.916 E0.02590
G1 X112.427 Y75.168 E0.02690
G1 X113.407 Y77.907 E0.26762
G1 X113.492 Y78.508 E0.05581
G1 X113.565 Y78.609 E0.01146
G1 X114.174 Y80.442 E0.17768
G1 X112.241 Y84.299 E0.39679
G1 X112.450 Y84.821 E0.05169
G1 X112.998 Y85.018 E0.05362
G1 X115.576 Y85.299 E0.23853
G1 X118.254 Y85.381 E0.24641
G1 X121.061 Y85.338 E0.25816
G1 X123.807 Y85.256 E0.25273
G1 X123.946 Y85.271 E0.01282
G1 X124.008 Y85.253 E0.00592
G1 X126.640 Y85.229 E0.24216
G1 X129.489 Y85.237 E0.26197
G1 X132.446 Y85.146 E0.27218
G1 X133.380 Y85.741 F7800.000
G1 X133.739 Y85.227 E0.05768 F1440.000
G1 X133.588 Y84.773 E0.04400
G1 X135.327 Y81.303 E0.35706
G1 X136.556 Y80.895 E0.11904
G1 X136.584 Y80.909 E0.00291
G1 X136.967 Y80.857 E0.03553
G1 X137.370 Y80.492 E0.05003
G1 X138.175 Y80.187 E0.07915
G1 X138.763 Y80.192 E0.05405
G1 X140.773 Y80.998 E0.19921
G1 X141.232 Y81.466 E0.06029
G1 X141.294 Y81.628 E0.01601
G1 X141.421 Y81.785 E0.01854
G1 X141.970 Y82.136 E0.05992
G1 X143.048 Y84.402 E0.23088
G1 X143.125 Y84.750 E0.03278
G1 X143.119 Y85.284 E0.04906
G1 X143.212 Y85.514 E0.02279
G1 X143.481 Y85.790 E0.03545
G1 X143.914 Y88.907 E0.28946
G1 X143.911 Y89.143 E0.02169
G1 X143.855 Y89.480 E0.03146
G1 X143.782 Y89.704 E0.02169
G1 X140.775 Y95.705 E0.61734
G1 X139.348 Y96.179 E0.13829
G1 X139.149 Y96.222 E0.01869
G1 X138.852 Y96.588 E0.04337
G1 X138.463 Y96.896 E0.04563
G1 X138.157 Y97.046 E0.03139
G1 X135.666 Y97.644 E0.23562
G1 X135.608 Y97.624 E0.00557
G1 X135.375 Y97.633 E0.02149
G1 X134.883 Y97.845 E0.04927
G1 X132.440 Y98.275 E0.22821
G1 X132.304 Y98.221 E0.01344
G1 X132.067 Y98.220 E0.02174
G1 X131.777 Y98.332 E0.02865
G1 X129.371 Y98.631 E0.22302
G1 X129.217 Y98.563 E0.01549
G1 X128.984 Y98.552 E0.02145
G1 X128.744 Y98.632 E0.02325
G1 X126.384 Y98.774 E0.21746
G1 X126.328 Y98.746 E0.00580
G1 X126.091 Y98.725 E0.02187
G1 X125.794 Y98.813 E0.02845
G1 X123.466 Y98.850 E0.21412
G1 X123.420 Y98.825 E0.00481
G1 X123.173 Y98.799 E0.02287
G1 X122.976 Y98.858 E0.01893
G1 X120.648 Y98.894 E0.21412
G1 X120.563 Y98.848 E0.00892
G1 X120.323 Y98.820 E0.02220
G1 X120.129 Y98.873 E0.01856
G1 X117.823 Y98.841 E0.21211
G1 X117.780 Y98.816 E0.00454
G1 X117.536 Y98.784 E0.02264
G1 X117.336 Y98.837 E0.01898
G1 X115.038 Y98.782 E0.21149
G1 X114.982 Y98.749 E0.00595
G1 X114.738 Y98.715 E0.02264
G1 X114.564 Y98.760 E0.01649
G1 X112.273 Y98.682 E0.21088
G1 X112.232 Y98.658 E0.00440
G1 X111.989 Y98.622 E0.02260
G1 X111.796 Y98.670 E0.01825
G1 X109.513 Y98.566 E0.21018
G1 X109.473 Y98.542 E0.00429
G1 X109.227 Y98.504 E0.02287
G1 X109.062 Y98.545 E0.01563
G1 X106.780 Y98.441 E0.21018
G1 X106.736 Y98.415 E0.00466
G1 X106.492 Y98.377 E0.02276
G1 X106.323 Y98.418 E0.01595
G1 X104.044 Y98.304 E0.20991
G1 X104.004 Y98.280 E0.00426
G1 X103.759 Y98.242 E0.02288
G1 X103.597 Y98.281 E0.01530
G1 X101.317 Y98.168 E0.20995
G1 X101.281 Y98.146 E0.00388
G1 X101.035 Y98.108 E0.02292
G1 X100.871 Y98.149 E0.01549
G1 X98.590 Y98.041 E0.21010
G1 X98.549 Y98.016 E0.00441
G1 X98.305 Y97.979 E0.02270
G1 X98.128 Y98.021 E0.01668
G1 X95.852 Y97.897 E0.20968
G1 X95.813 Y97.873 E0.00423
G1 X95.567 Y97.834 E0.02287
G1 X95.407 Y97.873 E0.01521
G1 X93.130 Y97.749 E0.20968
G1 X93.064 Y97.709 E0.00717
G1 X92.823 Y97.669 E0.02243
G1 X92.666 Y97.704 E0.01484
G1 X90.404 Y97.537 E0.20860
G1 X90.366 Y97.513 E0.00412
G1 X90.123 Y97.470 E0.02270
G1 X89.958 Y97.506 E0.01555
G1 X87.701 Y97.323 E0.20822
G1 X87.651 Y97.291 E0.00546
G1 X87.409 Y97.247 E0.02266
G1 X87.262 Y97.278 E0.01383
G1 X85.012 Y97.075 E0.20774
G1 X84.976 Y97.051 E0.00403
G1 X84.734 Y97.005 E0.02266
G1 X84.572 Y97.038 E0.01513
G1 X82.330 Y96.814 E0.20729
G1 X82.285 Y96.785 E0.00497
G1 X82.042 Y96.737 E0.02271
G1 X81.903 Y96.765 E0.01310
G1 X79.665 Y96.527 E0.20696
G1 X79.629 Y96.503 E0.00395
G1 X79.388 Y96.454 E0.02267
G1 X79.234 Y96.484 E0.01441
G1 X77.003 Y96.227 E0.20655
G1 X76.957 Y96.196 E0.00509
G1 X76.716 Y96.145 E0.02268
G1 X76.583 Y96.170 E0.01246
G1 X74.358 Y95.895 E0.20618
G1 X74.323 Y95.872 E0.00387
G1 X74.082 Y95.820 E0.02269
G1 X73.937 Y95.846 E0.01359
G1 X71.718 Y95.554 E0.20582
G1 X71.669 Y95.520 E0.00554
G1 X71.429 Y95.467 E0.02261
G1 X71.302 Y95.488 E0.01182
G1 X69.092 Y95.172 E0.20533
G1 X69.059 Y95.148 E0.00379
G1 X68.818 Y95.093 E0.02267
G1 X68.679 Y95.116 E0.01301
G1 X66.476 Y94.781 E0.20496
G1 X66.422 Y94.743 E0.00607
G1 X66.184 Y94.685 E0.02252
G1 X66.065 Y94.704 E0.01107
G1 X63.874 Y94.336 E0.20435
G1 X63.841 Y94.312 E0.00377
G1 X63.604 Y94.252 E0.02249
G1 X63.459 Y94.272 E0.01349
G1 X61.280 Y93.869 E0.20373
G1 X61.228 Y93.830 E0.00606
G1 X60.991 Y93.767 E0.02251
G1 X60.883 Y93.781 E0.01003
G1 X58.718 Y93.345 E0.20317
G1 X58.684 Y93.319 E0.00391
G1 X58.456 Y93.253 E0.02181
G1 X58.265 Y93.270 E0.01764
G1 X56.138 Y92.736 E0.20173
G1 X56.108 Y92.711 E0.00364
G1 X55.870 Y92.637 E0.02284
G1 X55.781 Y92.646 E0.00830
G1 X53.654 Y92.109 E0.20170
G1 X53.527 Y92.003 E0.01525
G1 X53.311 Y91.929 E0.02105
G1 X53.204 Y91.932 E0.00978
G1 X51.147 Y91.231 E0.19991
G1 X51.048 Y91.138 E0.01247
G1 X50.859 Y91.052 E0.01913
G1 X50.567 Y91.024 E0.02699
G1 X48.665 Y89.995 E0.19884
G1 X48.543 Y89.846 E0.01773
G1 X48.437 Y89.763 E0.01235
G1 X47.693 Y89.401 E0.07612
G1 X46.369 Y87.460 E0.21613
G1 X46.233 Y87.065 E0.03842
G1 X46.192 Y86.458 E0.05594
G1 X46.274 Y86.049 E0.03842
G1 X48.452 Y81.704 E0.44706
G1 X49.680 Y81.296 E0.11904
G1 X49.724 Y81.317 E0.00446
G1 X50.074 Y81.288 E0.03230
G1 X50.642 Y80.873 E0.06478
G1 X50.987 Y80.730 E0.03430
G1 X53.417 Y80.348 E0.22626
G1 X53.679 Y80.456 E0.02605
G1 X53.894 Y80.467 E0.01985
G1 X54.136 Y80.394 E0.02324
G1 X56.468 Y80.345 E0.21449
G1 X56.613 Y80.423 E0.01521
G1 X56.843 Y80.453 E0.02125
G1 X57.033 Y80.406 E0.01800
G1 X59.311 Y80.524 E0.20984
G1 X59.383 Y80.568 E0.00772
G1 X59.617 Y80.608 E0.02190
G1 X59.814 Y80.567 E0.01851
G1 X62.060 Y80.781 E0.20751
G1 X62.097 Y80.805 E0.00406
G1 X62.336 Y80.852 E0.02237
G1 X62.519 Y80.817 E0.01719
G1 X64.749 Y81.079 E0.20645
G1 X64.790 Y81.107 E0.00462
G1 X65.032 Y81.158 E0.02275
G1 X65.165 Y81.133 E0.01242
G1 X67.390 Y81.406 E0.20621
G1 X67.446 Y81.444 E0.00621
G1 X67.685 Y81.496 E0.02249
G1 X67.817 Y81.473 E0.01234
G1 X70.029 Y81.782 E0.20547
G1 X70.063 Y81.806 E0.00380
G1 X70.304 Y81.861 E0.02267
G1 X70.444 Y81.837 E0.01309
G1 X72.650 Y82.165 E0.20511
G1 X72.683 Y82.189 E0.00378
G1 X72.925 Y82.245 E0.02285
G1 X73.047 Y82.224 E0.01132
G1 X75.252 Y82.553 E0.20509
G1 X75.288 Y82.579 E0.00402
G1 X75.529 Y82.635 E0.02282
G1 X75.650 Y82.615 E0.01129
G1 X77.854 Y82.948 E0.20500
G1 X77.885 Y82.970 E0.00345
G1 X78.128 Y83.026 E0.02300
G1 X78.240 Y83.007 E0.01046
G1 X80.449 Y83.328 E0.20524
G1 X80.481 Y83.350 E0.00359
G1 X80.726 Y83.405 E0.02314
G1 X80.827 Y83.387 E0.00940
G1 X83.062 Y83.684 E0.20740
G1 X83.193 Y83.730 E0.01282
G1 X85.735 Y83.902 E0.23434
G1 X88.173 Y83.572 E0.22629
G1 X88.312 Y83.517 E0.01370
G1 X88.454 Y83.417 E0.01599
G1 X91.141 Y82.128 E0.27408
G1 X91.287 Y82.154 E0.01368
G1 X91.657 Y81.968 E0.03808
G1 X92.002 Y81.279 E0.07090
G1 X93.552 Y80.764 E0.15019
G1 X93.740 Y80.601 E0.02287
G1 X94.664 Y78.758 E0.18964
G1 X96.213 Y78.243 E0.15019
G1 X96.401 Y78.080 E0.02287
G1 X98.045 Y74.801 E0.33738
G1 X98.146 Y74.648 E0.01688
G1 X98.317 Y74.444 E0.02447
G1 X98.451 Y74.318 E0.01688
G1 X101.437 Y72.110 E0.34162
G1 X102.058 Y72.129 E0.05711
G1 X102.262 Y72.064 E0.01975
G1 X102.744 Y71.698 E0.05559
G1 X103.071 Y71.552 E0.03296
G1 X105.528 Y71.072 E0.23032
G1 X105.886 Y71.209 E0.03520
G1 X106.137 Y71.200 E0.02309
G1 X106.203 Y71.170 E0.00672
G1 X106.735 Y71.122 E0.04916
G1 X108.860 Y71.663 E0.20164
G1 X109.470 Y72.159 E0.07232
G1 X110.138 Y72.470 E0.06775
G1 X111.493 Y74.369 E0.21454
G1 X111.639 Y74.769 E0.03920
G1 X111.676 Y75.247 E0.04405
G1 X111.805 Y75.483 E0.02478
G1 X111.901 Y75.555 E0.01104
G1 X112.797 Y78.058 E0.24454
G1 X112.842 Y78.372 E0.02913
G1 X112.816 Y78.796 E0.03913
G1 X113.003 Y79.121 E0.03451
G1 X113.091 Y79.166 E0.00907
G1 X113.499 Y80.394 E0.11904
G1 X111.527 Y84.330 E0.40498
G1 X111.526 Y84.624 E0.02706
G1 X111.787 Y85.150 E0.05401
G1 X111.967 Y85.312 E0.02227
G1 X112.949 Y85.664 E0.09591
G1 X113.117 Y85.677 E0.01552
G1 X113.209 Y85.659 E0.00863
G1 X115.620 Y85.933 E0.22319
G1 X115.754 Y85.920 E0.01238
G1 X118.045 Y85.999 E0.21084
G1 X118.306 Y86.034 E0.02425
G1 X118.446 Y85.993 E0.01340
G1 X120.771 Y85.966 E0.21383
G1 X121.050 Y86.007 E0.02599
G1 X121.243 Y85.948 E0.01856
G1 X123.579 Y85.887 E0.21486
G1 X123.633 Y85.917 E0.00571
G1 X123.877 Y85.942 E0.02249
G1 X124.100 Y85.877 E0.02137
G1 X126.422 Y85.856 E0.21366
G1 X126.483 Y85.889 E0.00633
G1 X126.728 Y85.917 E0.02267
G1 X126.915 Y85.863 E0.01790
G1 X129.231 Y85.862 E0.21307
G1 X129.504 Y85.900 E0.02532
G1 X129.683 Y85.846 E0.01718
G1 X132.018 Y85.785 E0.21486
G1 X132.060 Y85.807 E0.00438
G1 X132.309 Y85.831 E0.02299
G1 X132.509 Y85.769 E0.01932
G1 X133.320 Y85.743 E0.07459
G1 X133.400 Y86.366 F7800.000
G1 X134.237 Y86.340 E0.07708 F1440.000
G1 X134.596 Y85.825 E0.05768
G1 X134.263 Y84.822 E0.09727
G1 X135.770 Y81.814 E0.30944
G1 X136.507 Y81.569 E0.07142
G1 X136.806 Y81.719 E0.03078
G1 X137.297 Y81.556 E0.04761
G1 X137.440 Y81.271 E0.02930
G1 X137.702 Y81.035 E0.03243
G1 X138.287 Y80.813 E0.05753
G1 X138.639 Y80.816 E0.03243
G1 X140.419 Y81.529 E0.17634
G1 X140.694 Y81.810 E0.03618
G1 X140.783 Y82.044 E0.02299
G1 X140.910 Y82.200 E0.01854
G1 X141.483 Y82.566 E0.06249
G1 X142.453 Y84.606 E0.20785
G1 X142.499 Y84.815 E0.01967
G1 X142.496 Y85.191 E0.03455
G1 X142.445 Y85.399 E0.01971
G1 X142.530 Y85.710 E0.02966
G1 X142.890 Y86.079 E0.04738
G1 X143.288 Y88.946 E0.26624
G1 X143.286 Y89.088 E0.01301
G1 X143.246 Y89.332 E0.02279
G1 X143.202 Y89.467 E0.01301
G1 X140.332 Y95.193 E0.58919
G1 X139.595 Y95.438 E0.07142
G1 X139.296 Y95.288 E0.03078
G1 X138.805 Y95.452 E0.04761
G1 X138.539 Y95.982 E0.05455
G1 X138.410 Y96.141 E0.01883
G1 X138.128 Y96.364 E0.03307
G1 X137.944 Y96.454 E0.01883
