; generated by Slic3r 1.2.9 on 2017-11-04 at 03:00:37

; external perimeters extrusion width = 0.40mm
; perimeters extrusion width = 0.48mm
; infill extrusion width = 0.48mm
; solid infill extrusion width = 0.48mm
; top infill extrusion width = 0.48mm
; support material extrusion width = 0.40mm

M107
G90
M83
G28
G1 Z10
M190 S79
G1 Z0.4
G92 E0
M109 S230
G21 ; set units to millimeters
G90 ; use absolute coordinates
M83 ; use relative distances for extrusion
G1 E-1.00000 F1800.00000
G1 Z0.350 F7800.000
G1 X79.440 Y65.196 F7800.000
G1 E1.00000 F1800.00000
G1 X81.313 Y63.872 E0.21095 F1440.000
G1 X83.971 Y63.239 E0.25131
G1 X87.989 Y63.135 E0.36968
G1 X103.415 Y63.037 E1.41894
G1 X104.009 Y63.060 E0.05464
G1 X106.407 Y63.260 E0.22138 F1440.000
G1 X108.625 Y63.844 E0.21095
G1 X109.641 Y64.425 E0.10768
G1 X109.862 Y64.579 E0.02467
G1 X111.488 Y66.195 E0.21095
G1 X112.109 Y67.278 E0.11479
G1 X119.691 Y83.989 E1.68785
G1 X120.263 Y86.210 E0.21095
G1 X120.034 Y88.524 E0.21390
G1 X117.888 Y96.137 E0.72750
G1 X116.892 Y98.203 E0.21095
G1 X115.577 Y99.569 E0.17439
G1 X114.183 Y100.653 E0.16241
G1 X107.479 Y105.234 E0.74682
G1 X106.151 Y105.932 E0.13805
G1 X105.032 Y106.367 E0.11039
G1 X103.438 Y106.768 E0.15120
G1 X102.908 Y106.833 E0.04910
G1 X102.073 Y106.882 E0.07696
G1 X87.336 Y106.817 E1.35545
G1 X86.400 Y106.773 E0.08623
G1 X83.308 Y105.805 E0.29800
G1 X82.239 Y105.148 E0.11538
G1 X74.680 Y100.009 E0.84070
G1 X73.037 Y98.410 E0.21095
G1 X72.034 Y96.336 E0.21190
G1 X70.018 Y89.201 E0.68189
G1 X69.787 Y87.900 E0.12157
G1 X69.736 Y87.228 E0.06202
G1 X70.330 Y83.946 E0.30674
G1 X78.132 Y67.080 E1.70924
G1 X79.406 Y65.246 E0.20543
G1 E-1.00000 F1800.00000
G1 X88.031 Y69.759 F7800.000
G1 E1.00000 F1800.00000
G1 X81.754 Y82.282 E1.28833 F1440.000
G1 X80.605 Y81.786 E0.11514
G1 X86.116 Y70.790 E1.13136
G1 X85.039 Y70.151 E0.11524
G1 X81.571 Y77.070 E0.71189
G1 E-1.00000 F1800.00000
G1 X84.014 Y83.352 F7800.000
G1 E1.00000 F1800.00000
G1 X90.564 Y70.284 E1.34449 F1440.000
G1 X91.109 Y71.985 E0.16436
G1 X85.696 Y82.786 E1.11120
G1 E-1.00000 F1800.00000
G1 X83.785 Y83.808 F7800.000
G1 E1.00000 F1800.00000
G1 X78.409 Y94.534 E1.10349 F1440.000
G1 X79.452 Y95.244 E0.11598
G1 X84.572 Y85.028 E1.05102
G1 X85.358 Y86.248 E0.13350
G1 X80.494 Y95.953 E0.99854
G1 X81.536 Y96.663 E0.11598
G1 X86.664 Y86.433 E1.05253
G1 E-1.00000 F1800.00000
G1 X88.162 Y83.443 F7800.000
G1 E1.00000 F1800.00000
G1 X92.260 Y75.267 E0.84118 F1440.000
G1 X93.656 Y75.272 E0.12835
G1 X82.578 Y97.373 E2.27387
G1 X83.621 Y98.083 E0.11598
G1 X95.190 Y74.999 E2.37496
G1 X96.451 Y75.272 F7800.000
G1 X84.663 Y98.793 E2.41990 F1440.000
G1 X85.705 Y99.502 E0.11598
G1 X97.852 Y75.267 E2.49344
G1 E-1.00000 F1800.00000
G1 X98.867 Y73.241 F7800.000
G1 E1.00000 F1800.00000
G1 X100.380 Y70.223 E0.31048 F1440.000
G1 X102.005 Y69.769 F7800.000
G1 X86.774 Y100.159 E3.12660 F1440.000
G1 X88.185 Y100.133 E0.12980
G1 X103.457 Y69.662 E3.13500
G1 X104.391 Y70.589 F7800.000
G1 X89.803 Y99.694 E2.99442 F1440.000
G1 X91.421 Y99.254 E0.15422
G1 X100.857 Y80.428 E1.93688
G1 X101.168 Y79.808 F7800.000
G1 X106.076 Y70.015 E1.00754 F1440.000
G1 X106.658 Y71.642 E0.15895
G1 X102.098 Y80.740 E0.93605
G1 X103.029 Y81.673 E0.12116
G1 X107.266 Y73.220 E0.86964
G1 X107.880 Y74.784 E0.15456
G1 X103.960 Y82.605 E0.80461
G1 X104.881 Y83.557 E0.12183
G1 X108.383 Y76.569 E0.71892
G1 X108.886 Y78.355 E0.17060
G1 X106.557 Y83.002 E0.47811
G1 X107.765 Y83.380 E0.11646
G1 X99.641 Y99.589 E1.66760
G1 X100.872 Y99.923 E0.11728
G1 X108.461 Y84.781 E1.55783
G1 X110.006 Y84.487 E0.14467
G1 X102.102 Y100.257 E1.62245
G1 X103.751 Y99.757 E0.15844
G1 X110.990 Y85.314 E1.48602
G1 X112.226 Y85.637 F7800.000
G1 X105.873 Y98.313 E1.30411 F1440.000
G1 X107.995 Y96.868 E0.23614
G1 X113.308 Y86.267 E1.09065
G1 E-1.00000 F1800.00000
G1 X112.484 Y90.700 F7800.000
G1 E1.00000 F1800.00000
G1 X110.117 Y95.423 E0.48590 F1440.000
G1 X105.349 Y85.411 F7800.000
G1 X98.411 Y99.254 E1.42428 F1440.000
G1 E-1.00000 F1800.00000
G1 X103.463 Y86.386 F7800.000
G1 E1.00000 F1800.00000
G1 X97.180 Y98.920 E1.28962 F1440.000
G1 X95.950 Y98.586 E0.11728
G1 X102.627 Y85.264 E1.37064
G1 X102.037 Y83.652 E0.15788
G1 X94.658 Y98.375 E1.51480
G1 X93.039 Y98.815 E0.15422
G1 X101.447 Y82.040 E1.72584
G1 E-1.00000 F1800.00000
G1 X108.390 Y82.134 F7800.000
G1 E1.00000 F1800.00000
G1 X109.389 Y80.140 E0.20521 F1440.000
G1 E-1.00000 F1800.00000
G1 X91.173 Y74.646 F7800.000
G1 E1.00000 F1800.00000
G1 X88.508 Y79.964 E0.54709 F1440.000
G1 E-1.00000 F1800.00000
G1 X80.698 Y84.390 F7800.000
G1 E1.00000 F1800.00000
G1 X77.459 Y90.852 E0.66479 F1440.000
G1 X77.992 Y92.578 E0.16615
G1 X89.176 Y70.263 E2.29580
G1 E-1.00000 F1800.00000
G1 X78.561 Y85.864 F7800.000
G1 E1.00000 F1800.00000
G1 X76.926 Y89.126 E0.33559 F1440.000
G1 X76.393 Y87.400 E0.16615
G1 X77.006 Y86.177 E0.12584
M104 S231 ; set temperature
M140 S85 ; wait for bed temperature to be reached
G1 E-1.00000 F1800.00000
G1 Z0.650 F7800.000
G1 X76.789 Y87.431 F7800.000
G1 E1.00000 F1800.00000
G1 X85.631 Y87.431 E0.37437 F932.199
G1 X86.198 Y87.431 F7800.000
G1 X103.802 Y87.431 E0.74541 F932.199
G1 X101.980 Y84.595 F7800.000
G1 X88.020 Y84.595 E0.59114 F932.199
G1 E-1.00000 F1800.00000
G1 X85.888 Y82.477 F7800.000
G1 E1.00000 F1800.00000
G1 X89.579 Y78.779 E0.22121 F932.199
G1 X89.850 Y78.952 E0.01362
G1 X87.369 Y85.729 E0.30557
G1 X85.894 Y87.414 E0.09482
G1 X83.035 Y82.980 E0.22339
G1 X83.234 Y82.753 E0.01279
G1 X84.873 Y83.529 E0.07678
G1 X85.888 Y82.477 E0.06191
G1 X86.259 Y81.760 F7800.000
G1 X81.774 Y81.760 E0.18989 F932.199
G1 X81.333 Y78.924 E0.12151
G1 X89.089 Y78.924 E0.32842
G1 X90.096 Y78.924 F7800.000
G1 X99.904 Y78.924 E0.41531 F932.199
G1 X100.151 Y78.954 F7800.000
G1 X100.422 Y78.781 E0.01362 F932.199
G1 X104.112 Y82.477 E0.22113
G1 X105.127 Y83.529 E0.06191
G1 X106.766 Y82.753 E0.07678
G1 X106.965 Y82.980 E0.01279
G1 X104.106 Y87.414 E0.22340
G1 X102.631 Y85.729 E0.09482
G1 X100.151 Y78.954 E0.30547
G1 X100.910 Y78.924 F7800.000
G1 X108.667 Y78.924 E0.32847 F932.199
G1 X107.868 Y76.089 E0.12475
G1 X82.132 Y76.089 E1.08974
G1 X83.165 Y73.253 E0.12778
G1 X90.816 Y73.253 E0.32399
G1 X88.436 Y70.417 F7800.000
G1 X86.601 Y70.417 E0.07768 F932.199
G1 E-1.00000 F1800.00000
G1 X84.564 Y70.417 F7800.000
G1 E1.00000 F1800.00000
G1 X84.180 Y70.417 E0.01627 F932.199
G1 E-1.00000 F1800.00000
G1 X89.058 Y81.760 F7800.000
G1 E1.00000 F1800.00000
G1 X100.942 Y81.760 E0.50323 F932.199
G1 E-1.00000 F1800.00000
G1 X103.741 Y81.760 F7800.000
G1 E1.00000 F1800.00000
G1 X108.226 Y81.760 E0.18990 F932.199
G1 E-1.00000 F1800.00000
G1 X107.927 Y84.595 F7800.000
G1 E1.00000 F1800.00000
G1 X106.198 Y84.595 E0.07323 F932.199
G1 X104.369 Y87.431 E0.14287
G1 X113.211 Y87.431 E0.37437
G1 X112.335 Y90.267 E0.12566
G1 X77.665 Y90.267 E1.46805
G1 X78.540 Y93.102 E0.12566
G1 X111.460 Y93.102 E1.39390
G1 X108.703 Y95.938 E0.16746
G1 X81.297 Y95.938 E1.16045
G1 X85.460 Y98.774 E0.21330
G1 X91.478 Y98.774 E0.25481
G1 E-1.00000 F1800.00000
G1 X98.521 Y98.774 F7800.000
G1 E1.00000 F1800.00000
G1 X104.538 Y98.774 E0.25478 F932.199
G1 E-1.00000 F1800.00000
G1 X83.802 Y84.595 F7800.000
G1 E1.00000 F1800.00000
G1 X82.073 Y84.595 E0.07323 F932.199
G1 E-1.00000 F1800.00000
G1 X99.182 Y73.253 F7800.000
G1 E1.00000 F1800.00000
G1 X106.835 Y73.253 E0.32406 F932.199
G1 X105.820 Y70.417 E0.12753
G1 X105.437 Y70.417 E0.01623
G1 X103.926 Y71.005 F7800.000
G1 X103.378 Y69.849 E0.05416 F932.199
G1 X101.485 Y69.989 E0.08039
G1 X101.227 Y70.701 E0.03207
G1 X100.797 Y70.372 E0.02292
G1 X99.033 Y70.509 E0.07490
G1 X98.914 Y75.450 E0.20931
G1 X95.634 Y75.462 E0.13889
G1 X95.000 Y75.134 E0.03022
G1 X94.366 Y75.462 E0.03022
G1 X91.084 Y75.450 E0.13897
G1 X90.965 Y70.509 E0.20930
G1 X89.202 Y70.372 E0.07490
G1 X88.773 Y70.700 E0.02284
G1 X88.516 Y69.989 E0.03200
G1 X86.623 Y69.849 E0.08039
G1 X86.073 Y71.005 E0.05419
G1 X84.144 Y69.861 E0.09495
G1 X82.890 Y73.365 E0.15758
G1 X82.627 Y73.535 E0.01328
G1 X80.387 Y81.472 E0.34916
G1 X81.545 Y81.953 E0.05310
G1 X82.831 Y82.562 E0.06023
G1 X81.572 Y85.097 E0.11985
G1 X80.437 Y84.485 E0.05457
G1 X79.192 Y85.151 E0.05980
G1 X78.941 Y86.223 E0.04659
G1 X77.819 Y85.812 E0.05058
G1 X76.342 Y86.727 E0.07357
G1 X78.376 Y93.313 E0.29183
G1 X78.489 Y94.339 E0.04372
G1 X86.558 Y99.838 E0.41347
G1 X87.366 Y100.192 E0.03735
G1 X95.000 Y98.117 E0.33499
G1 X102.632 Y100.192 E0.33490
G1 X103.440 Y99.838 E0.03735
G1 X111.511 Y94.339 E0.41354
G1 X111.624 Y93.313 E0.04372
G1 X113.658 Y86.726 E0.29187
G1 X112.180 Y85.812 E0.07359
G1 X111.059 Y86.223 E0.05054
G1 X110.808 Y85.151 E0.04659
G1 X109.563 Y84.485 E0.05980
G1 X108.428 Y85.097 E0.05457
G1 X107.169 Y82.562 E0.11985
G1 X108.455 Y81.953 E0.06023
G1 X109.613 Y81.471 E0.05309
G1 X107.373 Y73.536 E0.34915
G1 X107.110 Y73.365 E0.01328
G1 X105.856 Y69.862 E0.15754
G1 X103.926 Y71.005 E0.09496
G1 X103.399 Y70.417 F7800.000
G1 X101.565 Y70.417 E0.07768 F932.199
G1 E-1.00000 F1800.00000
G1 Z0.950 F7800.000
G1 E1.00000 F1800.00000
G1 X103.399 Y70.417 E0.07768 F3600.000
G1 X103.926 Y71.005 F7800.000
G1 X103.378 Y69.849 E0.05416 F3600.000
G1 X101.485 Y69.989 E0.08039
G1 X101.227 Y70.701 E0.03207
G1 X100.797 Y70.372 E0.02292
G1 X99.033 Y70.509 E0.07490
G1 X98.914 Y75.450 E0.20931
G1 X95.634 Y75.462 E0.13889
G1 X95.000 Y75.134 E0.03022
G1 X94.366 Y75.462 E0.03022
G1 X91.084 Y75.450 E0.13897
G1 X90.965 Y70.509 E0.20930
G1 X89.202 Y70.372 E0.07490
G1 X88.773 Y70.700 E0.02284
G1 X88.516 Y69.989 E0.03200
G1 X86.623 Y69.849 E0.08039
G1 X86.073 Y71.005 E0.05419
G1 X84.144 Y69.861 E0.09495
G1 X82.890 Y73.365 E0.15758
G1 X82.627 Y73.535 E0.01328
G1 X80.387 Y81.472 E0.34916
G1 X81.545 Y81.953 E0.05310
G1 X82.831 Y82.562 E0.06023
G1 X81.572 Y85.097 E0.11985
G1 X80.437 Y84.485 E0.05457
G1 X79.192 Y85.151 E0.05980
G1 X78.941 Y86.223 E0.04659
G1 X77.819 Y85.812 E0.05058
G1 X76.342 Y86.727 E0.07357
G1 X78.376 Y93.313 E0.29183
G1 X78.489 Y94.339 E0.04372
G1 X86.558 Y99.838 E0.41347
G1 X87.366 Y100.192 E0.03735
G1 X95.000 Y98.117 E0.33499
G1 X102.632 Y100.192 E0.33490
G1 X103.440 Y99.838 E0.03735
G1 X111.511 Y94.339 E0.41354
G1 X111.624 Y93.313 E0.04372
G1 X113.658 Y86.726 E0.29187
G1 X112.180 Y85.812 E0.07359
G1 X111.059 Y86.223 E0.05054
G1 X110.808 Y85.151 E0.04659
G1 X109.563 Y84.485 E0.05980
G1 X108.428 Y85.097 E0.05457
G1 X107.169 Y82.562 E0.11985
G1 X108.455 Y81.953 E0.06023
G1 X109.613 Y81.471 E0.05309
G1 X107.373 Y73.536 E0.34915
G1 X107.110 Y73.365 E0.01328
G1 X105.856 Y69.862 E0.15754
G1 X103.926 Y71.005 E0.09496
G1 X105.437 Y70.417 F7800.000
G1 X105.820 Y70.417 E0.01623 F3600.000
G1 X106.835 Y73.253 E0.12753
G1 X99.182 Y73.253 E0.32406
G1 X99.904 Y78.924 F7800.000
G1 X90.096 Y78.924 E0.41531 F3600.000
G1 X89.089 Y78.924 F7800.000
G1 X81.333 Y78.924 E0.32842 F3600.000
G1 X81.774 Y81.760 E0.12151
G1 X86.259 Y81.760 E0.18989
G1 X85.888 Y82.477 F7800.000
G1 X89.579 Y78.779 E0.22121 F3600.000
G1 X89.850 Y78.952 E0.01362
G1 X87.369 Y85.729 E0.30557
G1 X85.894 Y87.414 E0.09482
G1 X83.035 Y82.980 E0.22339
G1 X83.234 Y82.753 E0.01279
G1 X84.873 Y83.529 E0.07678
G1 X85.888 Y82.477 E0.06191
G1 E-1.00000 F1800.00000
G1 X83.802 Y84.595 F7800.000
G1 E1.00000 F1800.00000
G1 X82.073 Y84.595 E0.07323 F3600.000
G1 X85.631 Y87.431 F7800.000
G1 X76.789 Y87.431 E0.37437 F3600.000
G1 X86.198 Y87.431 F7800.000
G1 X103.802 Y87.431 E0.74541 F3600.000
G1 X101.980 Y84.595 F7800.000
G1 X88.020 Y84.595 E0.59114 F3600.000
G1 X89.058 Y81.760 F7800.000
G1 X100.942 Y81.760 E0.50323 F3600.000
G1 E-1.00000 F1800.00000
G1 X103.741 Y81.760 F7800.000
G1 E1.00000 F1800.00000
G1 X108.226 Y81.760 E0.18990 F3600.000
G1 E-1.00000 F1800.00000
G1 X107.927 Y84.595 F7800.000
G1 E1.00000 F1800.00000
G1 X106.198 Y84.595 E0.07323 F3600.000
G1 X104.369 Y87.431 E0.14287
G1 X113.211 Y87.431 E0.37437
G1 X112.335 Y90.267 E0.12566
G1 X77.665 Y90.267 E1.46805
G1 X78.540 Y93.102 E0.12566
G1 X111.460 Y93.102 E1.39390
G1 X108.703 Y95.938 E0.16746
G1 X81.297 Y95.938 E1.16045
G1 X85.460 Y98.774 E0.21330
G1 X91.478 Y98.774 E0.25481
G1 E-1.00000 F1800.00000
G1 X98.521 Y98.774 F7800.000
G1 E1.00000 F1800.00000
G1 X104.538 Y98.774 E0.25478 F3600.000
G1 E-1.00000 F1800.00000
G1 X100.910 Y78.924 F7800.000
G1 E1.00000 F1800.00000
G1 X108.667 Y78.924 E0.32847 F3600.000
G1 X107.868 Y76.089 E0.12475
G1 X82.132 Y76.089 E1.08974
G1 X83.165 Y73.253 E0.12778
G1 X90.816 Y73.253 E0.32399
G1 X88.436 Y70.417 F7800.000
G1 X86.601 Y70.417 E0.07768 F3600.000
G1 E-1.00000 F1800.00000
G1 X84.564 Y70.417 F7800.000
G1 E1.00000 F1800.00000
G1 X84.180 Y70.417 E0.01627 F3600.000
G1 E-1.00000 F1800.00000
G1 X100.151 Y78.954 F7800.000
G1 E1.00000 F1800.00000
G1 X100.422 Y78.781 E0.01362 F3600.000
G1 X104.112 Y82.477 E0.22113
G1 X105.127 Y83.529 E0.06191
G1 X106.766 Y82.753 E0.07678
G1 X106.965 Y82.980 E0.01279
G1 X104.106 Y87.414 E0.22340
G1 X102.631 Y85.729 E0.09482
G1 X100.151 Y78.954 E0.30547
G1 E-1.00000 F1800.00000
G1 Z1.550 F7800.000
G1 X104.550 Y92.213 F7800.000
G1 E1.00000 F1800.00000
G1 X105.482 Y90.355 E0.10984 F1440.000
G1 X105.671 Y90.202 E0.01288
G1 X107.020 Y88.110 E0.13150
G1 X107.885 Y88.601 E0.05254
G1 X108.621 Y88.204 E0.04421
G1 X108.774 Y88.854 E0.03530
G1 X109.854 Y89.466 E0.06559
G1 X108.844 Y92.735 E0.18083
G1 X102.323 Y97.177 E0.41698
G1 X95.000 Y95.188 E0.40102
G1 X87.675 Y97.177 E0.40112
G1 X81.156 Y92.735 E0.41689
G1 X80.146 Y89.465 E0.18086
G1 X81.226 Y88.855 E0.06556
G1 X81.379 Y88.204 E0.03534
G1 X82.115 Y88.601 E0.04421
G1 X82.980 Y88.110 E0.05254
G1 X84.329 Y90.202 E0.13150
G1 X84.518 Y90.355 E0.01286
G1 X85.450 Y92.213 E0.10987
G1 X90.202 Y86.784 E0.38130
G1 X90.173 Y86.294 E0.02595
G1 X93.114 Y78.284 E0.45092
G1 X96.886 Y78.284 E0.19936
G1 X99.827 Y86.294 E0.45091
G1 X99.798 Y86.784 E0.02595
G1 X104.510 Y92.167 E0.37811
G1 X104.474 Y91.619 F7800.000
G1 X105.215 Y90.140 E0.08741 F1440.000
G1 X105.420 Y89.975 E0.01386
G1 X106.910 Y87.664 E0.14534
G1 X107.889 Y88.219 E0.05946
G1 X108.847 Y87.703 E0.05750
G1 X109.066 Y88.636 E0.05063
G1 X110.108 Y89.226 E0.06331
G1 X110.299 Y89.156 E0.01077
G1 X109.173 Y92.804 E0.20178
G1 X109.160 Y92.925 E0.00644
G1 X102.384 Y97.540 E0.43324
G1 X95.000 Y95.534 E0.40436
G1 X87.614 Y97.540 E0.40446
G1 X80.840 Y92.925 E0.43315
G1 X80.827 Y92.804 E0.00644
G1 X79.701 Y89.156 E0.20177
G1 X79.891 Y89.225 E0.01072
G1 X80.934 Y88.636 E0.06331
G1 X81.153 Y87.703 E0.05066
G1 X82.111 Y88.219 E0.05750
G1 X83.090 Y87.664 E0.05946
G1 X84.580 Y89.975 E0.14534
G1 X84.784 Y90.140 E0.01385
G1 X85.526 Y91.619 E0.08743
G1 X89.860 Y86.667 E0.34778
G1 X89.835 Y86.244 E0.02239
G1 X92.881 Y77.949 E0.46698
G1 X97.119 Y77.949 E0.22398
G1 X100.165 Y86.244 E0.46697
G1 X100.139 Y86.667 E0.02239
G1 X104.434 Y91.573 E0.34460
G1 X104.398 Y91.025 F7800.000
G1 X104.949 Y89.926 E0.06497 F1440.000
G1 X105.168 Y89.749 E0.01485
G1 X106.954 Y86.980 E0.17413
G1 X107.178 Y87.432 E0.02665
G1 X107.893 Y87.837 E0.04345
G1 X109.072 Y87.202 E0.07080
G1 X109.358 Y88.417 E0.06597
G1 X110.138 Y88.859 E0.04741
G1 X110.818 Y88.610 E0.03824
G1 X109.502 Y92.872 E0.23574
G1 X109.475 Y93.114 E0.01289
G1 X102.445 Y97.903 E0.44950
G1 X95.000 Y95.881 E0.40770
G1 X87.553 Y97.903 E0.40780
G1 X80.525 Y93.114 E0.44942
G1 X80.498 Y92.872 E0.01289
G1 X79.182 Y88.610 E0.23573
G1 X79.861 Y88.859 E0.03820
G1 X80.642 Y88.417 E0.04742
G1 X80.928 Y87.202 E0.06599
G1 X82.107 Y87.837 E0.07080
G1 X82.822 Y87.432 E0.04344
G1 X83.046 Y86.980 E0.02665
G1 X84.832 Y89.749 E0.17412
G1 X85.051 Y89.926 E0.01484
G1 X85.602 Y91.025 E0.06499
G1 X89.519 Y86.550 E0.31427
G1 X89.497 Y86.195 E0.01883
G1 X92.648 Y77.614 E0.48304
G1 X94.888 Y77.622 E0.11840
G1 X95.000 Y77.564 E0.00665
G1 X95.112 Y77.622 E0.00665
G1 X97.352 Y77.614 E0.11839
G1 X100.503 Y86.195 E0.48304
G1 X100.481 Y86.550 E0.01883
G1 X104.358 Y90.979 E0.31109
G1 X104.322 Y90.431 F7800.000
G1 X104.683 Y89.711 E0.04254 F1440.000
G1 X104.916 Y89.523 E0.01583
G1 X106.991 Y86.305 E0.20236
G1 X107.432 Y87.191 E0.05231
G1 X107.897 Y87.455 E0.02828
G1 X109.298 Y86.700 E0.08409
G1 X109.649 Y88.198 E0.08130
G1 X110.168 Y88.492 E0.03151
G1 X111.336 Y88.064 E0.06571
G1 X109.830 Y92.940 E0.26970
G1 X109.790 Y93.304 E0.01934
