; generated by Slic3r 1.2.9 on 2017-11-04 at 03:15:09

; external perimeters extrusion width = 0.40mm
; perimeters extrusion width = 0.43mm
; infill extrusion width = 0.43mm
; solid infill extrusion width = 0.43mm
; top infill extrusion width = 0.43mm
; support material extrusion width = 0.40mm

M107
G90
M83
G28
G1 Z10
M190 S80
G1 Z0.4
G92 E0
M109 S228
G21 ; set units to millimeters
G90 ; use absolute coordinates
M83 ; use relative distances for extrusion
G1 E-1.00000 F1800.00000
G1 Z0.360 F7800.000
G1 X49.910 Y62.439 F7800.000
G1 E1.00000 F1800.00000
G1 X80.473 Y38.009 E3.80742 F1440.000
G1 X82.658 Y36.771 E0.24429
G1 X85.424 Y36.273 E0.27347
G1 X104.576 Y36.273 E1.86374
G1 X107.055 Y36.671 E0.24429
G1 X109.527 Y38.009 E0.27347 F1440.000
G1 X144.435 Y65.912 E4.34873
G1 X146.123 Y67.771 E0.24429
G1 X147.145 Y70.063 E0.24429
G1 X147.413 Y72.144 E0.20408
G1 X147.275 Y86.832 E1.42939
G1 X147.168 Y88.060 E0.11995
G1 X143.664 Y109.070 E2.07271
G1 X142.465 Y111.999 E0.30795
G1 X141.559 Y113.135 E0.14133
G1 X126.045 Y129.296 E2.18000
G1 X123.028 Y131.259 E0.35024
G1 X100.286 Y139.505 E2.35398
G1 X97.583 Y139.980 E0.26700
G1 X92.417 Y139.980 E0.50272
G1 X89.714 Y139.505 E0.26700
G1 X66.972 Y131.259 E2.35398
G1 X63.955 Y129.296 E0.35024
G1 X48.441 Y113.135 E2.18000
G1 X47.535 Y112.000 E0.14128
G1 X46.336 Y109.070 E0.30802
G1 X42.832 Y88.060 E2.07269
G1 X42.725 Y86.832 E0.11996
G1 X42.587 Y72.143 E1.42941
G1 X42.973 Y69.663 E0.24429
G1 X44.115 Y67.427 E0.24429
G1 X45.565 Y65.912 E0.20407
G1 X49.863 Y62.477 E0.53547
G1 X50.312 Y62.941 F7800.000
G1 X80.875 Y38.511 E3.80742 F1440.000
G1 X82.976 Y37.340 E0.23412
G1 X85.424 Y36.916 E0.24169
G1 X104.576 Y36.916 E1.86374
G1 X106.949 Y37.313 E0.23412
G1 X109.125 Y38.511 E0.24169 F1440.000
G1 X144.034 Y66.414 E4.34873
G1 X145.639 Y68.206 E0.23412
G1 X146.573 Y70.423 E0.23412
G1 X146.770 Y72.140 E0.16817
G1 X146.632 Y86.826 E1.42911
G1 X146.534 Y87.955 E0.11023
G1 X143.032 Y108.951 E2.07131
G1 X141.931 Y111.642 E0.28298
G1 X141.096 Y112.689 E0.13036
G1 X125.581 Y128.851 E2.18000
G1 X122.809 Y130.655 E0.32185
G1 X100.067 Y138.901 E2.35398
G1 X97.583 Y139.337 E0.24536
G1 X92.417 Y139.337 E0.50272
G1 X89.934 Y138.901 E0.24536
G1 X67.191 Y130.655 E2.35398
G1 X64.419 Y128.851 E0.32185
G1 X48.905 Y112.689 E2.18000
G1 X48.070 Y111.642 E0.13031
G1 X46.968 Y108.950 E0.28305
G1 X43.466 Y87.955 E2.07129
G1 X43.368 Y86.826 E0.11023
G1 X43.230 Y72.140 E1.42912
G1 X43.616 Y69.766 E0.23412
G1 X44.754 Y67.646 E0.23412
G1 X45.966 Y66.414 E0.16816
G1 X50.265 Y62.979 E0.53547
G1 X50.713 Y63.443 F7800.000
G1 X81.276 Y39.013 E3.80742 F1440.000
G1 X83.291 Y37.911 E0.22348
G1 X85.424 Y37.559 E0.21035
G1 X104.576 Y37.559 E1.86374
G1 X106.838 Y37.956 E0.22348
G1 X108.724 Y39.013 E0.21035 F1440.000
G1 X143.632 Y66.917 E4.34873
G1 X145.151 Y68.639 E0.22348
G1 X145.993 Y70.776 E0.22348
G1 X146.127 Y72.137 E0.13314
G1 X146.126 Y72.333 E0.01902
G1 X145.990 Y86.820 E1.40979
G1 X145.900 Y87.849 E0.10050
G1 X142.401 Y108.831 E2.06990
G1 X141.396 Y111.285 E0.25802
G1 X140.632 Y112.244 E0.11939
G1 X125.117 Y128.406 E2.18000
G1 X122.590 Y130.050 E0.29346
G1 X99.847 Y138.296 E2.35398
G1 X97.583 Y138.694 E0.22371
G1 X92.417 Y138.694 E0.50272
G1 X90.153 Y138.296 E0.22371
G1 X67.411 Y130.050 E2.35398
G1 X64.883 Y128.406 E0.29346
G1 X49.368 Y112.244 E2.18000
G1 X48.604 Y111.285 E0.11935
G1 X47.599 Y108.831 E0.25808
G1 X44.100 Y87.849 E2.06989
G1 X44.010 Y86.820 E0.10051
G1 X43.873 Y72.137 E1.42883
G1 X44.259 Y69.873 E0.22348
G1 X45.393 Y67.876 E0.22348
G1 X46.368 Y66.917 E0.13313
G1 X50.666 Y63.481 E0.53547
G1 E-1.00000 F1800.00000
G1 X96.582 Y129.672 F7800.000
G1 E1.00000 F1800.00000
G1 X96.581 Y131.049 E0.13393 F960.000
G1 X93.419 Y131.049 E0.30770
G1 X93.418 Y129.672 E0.13393
G1 X70.212 Y122.918 E2.35180
G1 X55.065 Y107.138 E2.12847
G1 X51.655 Y86.670 E2.01922
G1 X51.528 Y73.108 E1.31973
G1 X57.956 Y73.108 E0.62552
G1 X58.081 Y86.364 E1.28994
G1 X58.118 Y87.074 E0.06921
G1 X58.239 Y87.301 E0.02511
G1 X64.974 Y108.276 E2.14361
G1 X73.643 Y116.162 E1.14042
G1 X95.000 Y121.875 E2.15130
G1 X116.357 Y116.162 E2.15130
G1 X125.026 Y108.276 E1.14041
G1 X131.761 Y87.301 E2.14360
G1 X131.882 Y87.074 E0.02511
G1 X131.919 Y86.364 E0.06921
G1 X132.044 Y73.108 E1.28994
G1 X138.472 Y73.108 E0.62551
G1 X138.345 Y86.670 E1.31973
G1 X134.935 Y107.138 E2.01922
G1 X119.788 Y122.918 E2.12847
G1 X96.640 Y129.655 E2.34598
G1 X97.224 Y130.155 F7800.000
G1 X97.223 Y131.691 E0.14953 F672.000
G1 X92.777 Y131.691 E0.43270
G1 X92.776 Y130.155 E0.14953
G1 X69.868 Y123.487 E2.32163
G1 X54.463 Y107.440 E2.16454
G1 X51.012 Y86.726 E2.04344
G1 X50.879 Y72.465 E1.38774
G1 X58.592 Y72.465 E0.75061
G1 X58.723 Y86.344 E1.35057
G1 X58.752 Y86.897 E0.05390
G1 X58.834 Y87.049 E0.01680
G1 X65.533 Y107.916 E2.13257
G1 X73.960 Y115.581 E1.10852
G1 X95.000 Y121.210 E2.11937
G1 X116.040 Y115.581 E2.11937
G1 X124.467 Y107.916 E1.10851
G1 X131.166 Y87.049 E2.13257
G1 X131.248 Y86.897 E0.01680
G1 X131.277 Y86.344 E0.05390
G1 X131.408 Y72.465 E1.35057
G1 X139.121 Y72.465 E0.75060
G1 X138.988 Y86.726 E1.38774
G1 X135.537 Y107.440 E2.04344
G1 X120.132 Y123.487 E2.16454
G1 X97.282 Y130.138 E2.31580
G1 X96.826 Y130.192 F7800.000
G1 X93.808 Y130.183 F7800.000
G1 X94.284 Y130.659 E0.06585 F1080.000
G1 X95.199 Y130.659 E0.08961
G1 X83.888 Y119.347 E1.56677
G1 X85.137 Y119.682 E0.12664
G1 X96.114 Y130.659 E1.52049
G1 X96.192 Y129.822 E0.08229
G1 X86.386 Y120.016 E1.35833
G1 X87.635 Y120.350 E0.12664
G1 X96.584 Y129.299 E1.23965
G1 X97.293 Y129.093 E0.07229
G1 X88.884 Y120.684 E1.16479
G1 X90.133 Y121.018 E0.12664
G1 X98.002 Y128.887 E1.08994
G1 X98.710 Y128.681 E0.07229
G1 X91.382 Y121.352 E1.01508
G1 X92.631 Y121.687 E0.12664
G1 X99.419 Y128.474 E0.94022
G1 X100.128 Y128.268 E0.07229
G1 X93.880 Y122.021 E0.86537
G1 X95.017 Y122.243 E0.11347
G1 X100.836 Y128.062 E0.80603
G1 X101.545 Y127.856 E0.07229
G1 X95.739 Y122.050 E0.80421
G1 X96.461 Y121.857 E0.07319
G1 X102.253 Y127.649 E0.80238
G1 X102.962 Y127.443 E0.07229
G1 X97.183 Y121.663 E0.80056
G1 X97.904 Y121.470 E0.07319
G1 X103.671 Y127.237 E0.79873
G1 X104.379 Y127.030 E0.07229
G1 X98.626 Y121.277 E0.79691
G1 X99.348 Y121.084 E0.07319
G1 X105.088 Y126.824 E0.79509
G1 X105.797 Y126.618 E0.07229
G1 X100.070 Y120.891 E0.79326
G1 X100.792 Y120.698 E0.07319
G1 X106.505 Y126.412 E0.79144
G1 X107.214 Y126.205 E0.07229
G1 X101.514 Y120.505 E0.78961
G1 X102.235 Y120.312 E0.07319
G1 X107.923 Y125.999 E0.78779
G1 X108.631 Y125.793 E0.07229
G1 X102.957 Y120.119 E0.78596
G1 X103.679 Y119.926 E0.07319
G1 X109.340 Y125.587 E0.78414
G1 X110.049 Y125.380 E0.07229
G1 X104.401 Y119.732 E0.78232
G1 X105.123 Y119.539 E0.07319
G1 X110.757 Y125.174 E0.78049
G1 X111.466 Y124.968 E0.07229
G1 X105.844 Y119.346 E0.77867
G1 X106.566 Y119.153 E0.07319
G1 X112.175 Y124.761 E0.77684
G1 X112.883 Y124.555 E0.07229
G1 X107.288 Y118.960 E0.77502
G1 X108.010 Y118.767 E0.07319
G1 X113.592 Y124.349 E0.77319
G1 X114.301 Y124.143 E0.07229
G1 X108.732 Y118.574 E0.77137
G1 X109.454 Y118.381 E0.07319
G1 X115.009 Y123.936 E0.76954
G1 X115.718 Y123.730 E0.07229
G1 X110.175 Y118.188 E0.76772
G1 X110.897 Y117.995 E0.07319
G1 X116.427 Y123.524 E0.76590
G1 X117.135 Y123.318 E0.07229
G1 X111.619 Y117.801 E0.76407
G1 X112.341 Y117.608 E0.07319
G1 X117.844 Y123.111 E0.76225
G1 X118.552 Y122.905 E0.07229
G1 X113.063 Y117.415 E0.76042
G1 X113.784 Y117.222 E0.07319
G1 X119.261 Y122.699 E0.75860
G1 X119.839 Y122.362 E0.06553
G1 X114.506 Y117.029 E0.73870
G1 X115.228 Y116.836 E0.07319
G1 X120.297 Y121.905 E0.70208
G1 X120.745 Y121.438 E0.06338
G1 X115.950 Y116.643 E0.66424
G1 X116.607 Y116.385 E0.06915
G1 X121.194 Y120.971 E0.63525
G1 X121.642 Y120.505 E0.06338
G1 X117.086 Y115.950 E0.63096
G1 X117.566 Y115.514 E0.06344
G1 X122.090 Y120.038 E0.62667
G1 X122.538 Y119.571 E0.06338
G1 X118.045 Y115.078 E0.62238
G1 X118.524 Y114.642 E0.06344
G1 X122.986 Y119.104 E0.61809
G1 X123.434 Y118.637 E0.06338
G1 X119.003 Y114.206 E0.61380
G1 X119.482 Y113.770 E0.06344
G1 X123.882 Y118.171 E0.60951
G1 X124.330 Y117.704 E0.06338
G1 X119.961 Y113.335 E0.60522
G1 X120.440 Y112.899 E0.06344
G1 X124.778 Y117.237 E0.60093
G1 X125.227 Y116.770 E0.06338
G1 X120.919 Y112.463 E0.59664
G1 X121.398 Y112.027 E0.06344
G1 X125.675 Y116.303 E0.59235
G1 X126.123 Y115.837 E0.06338
G1 X121.877 Y111.591 E0.58806
G1 X122.356 Y111.155 E0.06344
G1 X126.571 Y115.370 E0.58377
G1 X127.019 Y114.903 E0.06338
G1 X122.836 Y110.719 E0.57949
G1 X123.315 Y110.284 E0.06344
G1 X127.467 Y114.436 E0.57520
G1 X127.915 Y113.969 E0.06338
G1 X123.794 Y109.848 E0.57091
G1 X124.273 Y109.412 E0.06344
G1 X128.363 Y113.503 E0.56662
G1 X128.812 Y113.036 E0.06338
G1 X124.752 Y108.976 E0.56233
G1 X125.231 Y108.540 E0.06344
G1 X129.260 Y112.569 E0.55804
G1 X129.708 Y112.102 E0.06338
G1 X125.516 Y107.910 E0.58063
G1 X125.738 Y107.218 E0.07124
G1 X130.156 Y111.635 E0.61190
G1 X130.604 Y111.169 E0.06338
G1 X125.961 Y106.525 E0.64317
G1 X126.183 Y105.833 E0.07124
G1 X131.052 Y110.702 E0.67444
G1 X131.500 Y110.235 E0.06338
G1 X126.405 Y105.140 E0.70571
G1 X126.628 Y104.448 E0.07124
G1 X131.948 Y109.768 E0.73698
G1 X132.396 Y109.301 E0.06338
G1 X126.850 Y103.755 E0.76825
G1 X127.073 Y103.063 E0.07124
G1 X132.845 Y108.835 E0.79952
G1 X133.293 Y108.368 E0.06338
G1 X127.295 Y102.370 E0.83079
G1 X127.517 Y101.677 E0.07124
G1 X133.741 Y107.901 E0.86206
G1 X134.189 Y107.434 E0.06338
G1 X127.740 Y100.985 E0.89333
G1 X127.962 Y100.292 E0.07124
G1 X134.596 Y106.926 E0.91893
G1 X134.727 Y106.142 E0.07787
G1 X128.184 Y99.600 E0.90623
G1 X128.407 Y98.907 E0.07124
G1 X134.857 Y105.358 E0.89352
G1 X134.988 Y104.574 E0.07787
G1 X128.629 Y98.215 E0.88082
G1 X128.851 Y97.522 E0.07124
G1 X135.119 Y103.789 E0.86811
G1 X135.249 Y103.005 E0.07787
G1 X129.074 Y96.830 E0.85541
G1 X129.296 Y96.137 E0.07124
G1 X135.380 Y102.221 E0.84271
G1 X135.511 Y101.437 E0.07787
G1 X129.519 Y95.444 E0.83000
G1 X129.741 Y94.752 E0.07124
G1 X135.641 Y100.652 E0.81730
G1 X135.772 Y99.868 E0.07787
G1 X129.963 Y94.059 E0.80460
G1 X130.186 Y93.367 E0.07124
G1 X135.903 Y99.084 E0.79189
G1 X136.033 Y98.299 E0.07787
G1 X130.408 Y92.674 E0.77919
G1 X130.630 Y91.982 E0.07124
G1 X136.164 Y97.515 E0.76648
G1 X136.295 Y96.731 E0.07787
G1 X130.853 Y91.289 E0.75378
G1 X131.075 Y90.597 E0.07124
G1 X136.425 Y95.947 E0.74108
G1 X136.556 Y95.162 E0.07787
G1 X131.298 Y89.904 E0.72837
G1 X131.520 Y89.211 E0.07124
G1 X136.687 Y94.378 E0.71567
G1 X136.817 Y93.594 E0.07787
G1 X131.742 Y88.519 E0.70297
G1 X131.965 Y87.826 E0.07124
G1 X136.948 Y92.810 E0.69026
G1 X137.079 Y92.025 E0.07787
G1 X132.220 Y87.167 E0.67296
G1 X132.304 Y86.336 E0.08179
G1 X137.209 Y91.241 E0.67942
G1 X137.340 Y90.457 E0.07787
G1 X132.317 Y85.434 E0.69579
G1 X132.325 Y84.527 E0.08878
G1 X137.471 Y89.673 E0.71270
G1 X137.601 Y88.888 E0.07787
G1 X132.334 Y83.621 E0.72962
G1 X132.342 Y82.714 E0.08878
G1 X137.732 Y88.104 E0.74653
G1 X137.862 Y87.320 E0.07787
G1 X132.351 Y81.808 E0.76344
G1 X132.359 Y80.902 E0.08878
G1 X137.958 Y86.500 E0.77551
G1 X137.967 Y85.594 E0.08878
G1 X132.368 Y79.995 E0.77550
G1 X132.377 Y79.089 E0.08878
G1 X137.975 Y84.688 E0.77549
G1 X137.984 Y83.781 E0.08878
G1 X132.385 Y78.183 E0.77548
G1 X132.394 Y77.276 E0.08878
G1 X137.992 Y82.875 E0.77547
G1 X138.001 Y81.968 E0.08878
G1 X132.402 Y76.370 E0.77547
G1 X132.411 Y75.464 E0.08878
G1 X138.009 Y81.062 E0.77546
G1 X138.018 Y80.155 E0.08878
G1 X132.419 Y74.557 E0.77545
G1 X132.428 Y73.651 E0.08878
G1 X138.026 Y79.249 E0.77544
G1 X138.035 Y78.343 E0.08878
G1 X133.190 Y73.498 E0.67106
G1 X134.105 Y73.498 E0.08961
G1 X138.043 Y77.436 E0.54550
G1 X138.052 Y76.530 E0.08878
G1 X135.020 Y73.498 E0.41995
G1 X135.935 Y73.498 E0.08961
G1 X138.060 Y75.623 E0.29439
G1 X138.069 Y74.717 E0.08878
G1 X136.850 Y73.498 E0.16884
G1 X137.765 Y73.498 E0.08961
G1 X138.077 Y73.811 E0.04329
G1 E-1.00000 F1800.00000
G1 X92.611 Y128.986 F7800.000
G1 E1.00000 F1800.00000
G1 X82.638 Y119.013 E1.38135 F1080.000
G1 X81.389 Y118.679 E0.12664
G1 X91.320 Y128.610 E1.37560
G1 X90.030 Y128.235 E0.13165
G1 X80.140 Y118.345 E1.36985
G1 X78.891 Y118.011 E0.12664
G1 X88.739 Y127.859 E1.36410
G1 X87.449 Y127.483 E0.13165
G1 X77.642 Y117.677 E1.35835
G1 X76.393 Y117.343 E0.12664
G1 X86.158 Y127.108 E1.35260
G1 X84.867 Y126.732 E0.13165
G1 X75.144 Y117.008 E1.34685
G1 X73.895 Y116.674 E0.12664
G1 X83.577 Y126.356 E1.34110
G1 X82.286 Y125.981 E0.13165
G1 X68.370 Y112.064 E1.92767
G1 X64.482 Y108.176 F7800.000
G1 X53.894 Y97.588 E1.46662 F1080.000
G1 X54.076 Y98.686 E0.10901
G1 X80.996 Y125.605 E3.72874
G1 X79.705 Y125.229 E0.13165
G1 X54.259 Y99.783 E3.52464
G1 X54.442 Y100.881 E0.10901
G1 X78.415 Y124.854 E3.32054
G1 X77.124 Y124.478 E0.13165
G1 X54.625 Y101.979 E3.11644
G1 X54.808 Y103.077 E0.10901
G1 X75.833 Y124.102 E2.91234
G1 X74.543 Y123.727 E0.13165
G1 X54.991 Y104.175 E2.70824
G1 X55.174 Y105.273 E0.10901
G1 X73.252 Y123.351 E2.50414
G1 X71.962 Y122.975 E0.13165
G1 X55.357 Y106.370 E2.30004
G1 X63.184 Y104.133 F7800.000
G1 X53.345 Y94.294 E1.36282 F1080.000
G1 X53.528 Y95.392 E0.10901
G1 X63.616 Y105.481 E1.39742
G1 X64.049 Y106.828 E0.13863
G1 X53.711 Y96.490 E1.43202
G1 X53.162 Y93.197 F7800.000
G1 X62.751 Y102.785 E1.32822 F1080.000
G1 X62.318 Y101.438 E0.13863
G1 X52.979 Y92.099 E1.29362
G1 X52.796 Y91.001 E0.10901
G1 X61.886 Y100.090 E1.25902
G1 X61.453 Y98.743 E0.13863
G1 X52.613 Y89.903 E1.22441
G1 X52.430 Y88.805 E0.10901
G1 X61.020 Y97.395 E1.18981
G1 X60.587 Y96.047 E0.13863
G1 X52.248 Y87.707 E1.15521
G1 X52.065 Y86.610 E0.10901
G1 X60.155 Y94.700 E1.12061
G1 X59.722 Y93.352 E0.13863
G1 X52.037 Y85.667 E1.06456
G1 X52.028 Y84.743 E0.09046
G1 X59.289 Y92.005 E1.00583
G1 X58.857 Y90.657 E0.13863
G1 X52.019 Y83.820 E0.94709
G1 X52.011 Y82.896 E0.09046
G1 X58.424 Y89.309 E0.88836
G1 X57.991 Y87.962 E0.13863
G1 X52.002 Y81.972 E0.82962
G1 X51.993 Y81.049 E0.09046
G1 X57.704 Y86.759 E0.79097
G1 X57.684 Y85.825 E0.09151
G1 X51.985 Y80.125 E0.78952
G1 X51.976 Y79.202 E0.09046
G1 X57.676 Y84.901 E0.78951
G1 X57.667 Y83.978 E0.09047
G1 X51.967 Y78.278 E0.78950
G1 X51.959 Y77.354 E0.09046
G1 X57.658 Y83.054 E0.78949
G1 X57.650 Y82.130 E0.09047
G1 X51.950 Y76.431 E0.78949
G1 X51.941 Y75.507 E0.09046
G1 X57.641 Y81.207 E0.78948
G1 X57.632 Y80.283 E0.09047
G1 X51.933 Y74.584 E0.78947
G1 X51.924 Y73.660 E0.09046
G1 X57.623 Y79.360 E0.78946
G1 X57.615 Y78.436 E0.09047
G1 X52.677 Y73.498 E0.68397
G1 X53.592 Y73.498 E0.08961
G1 X57.606 Y77.512 E0.55604
G1 X57.597 Y76.589 E0.09047
G1 X54.507 Y73.498 E0.42810
G1 X55.422 Y73.498 E0.08961
G1 X57.589 Y75.665 E0.30016
G1 X57.580 Y74.741 E0.09047
G1 X56.337 Y73.498 E0.17222
G1 X57.251 Y73.498 E0.08961
G1 X57.571 Y73.818 E0.04428
G1 E-1.00000 F1800.00000
G1 X69.678 Y121.607 F7800.000
G1 E1.00000 F1800.00000
G1 X70.671 Y122.600 E0.13757 F1080.000
G1 E-1.00000 F1800.00000
G1 X109.932 Y103.594 F7800.000
G1 E1.00000 F1800.00000
G1 X95.179 Y103.594 E1.43566 F960.000
G1 X95.000 Y103.614 E0.01748
G1 X94.821 Y103.594 E0.01748
G1 X80.068 Y103.594 E1.43566
G1 X74.508 Y82.041 E2.16604
G1 X74.516 Y81.764 E0.02695
G1 X76.961 Y63.818 E1.76245
G1 X86.144 Y45.204 E2.01963
G1 X103.857 Y45.204 E1.72362
G1 X113.039 Y63.818 E2.01963
G1 X115.484 Y81.764 E1.76245
G1 X115.492 Y82.041 E0.02695
G1 X109.947 Y103.536 E2.16020
G1 X110.430 Y104.237 F7800.000
G1 X95.213 Y104.237 E1.48078 F672.000
G1 X95.000 Y104.260 E0.02083
G1 X94.787 Y104.237 E0.02083
G1 X79.570 Y104.237 E1.48078
G1 X73.862 Y82.113 E2.22339
G1 X73.875 Y81.711 E0.03914
G1 X76.339 Y63.627 E1.77593
G1 X85.744 Y44.562 E2.06871
G1 X104.256 Y44.562 E1.80140
G1 X113.661 Y63.627 E2.06871
G1 X116.125 Y81.711 E1.77593
G1 X116.138 Y82.113 E0.03914
G1 X110.445 Y104.179 E2.21755
G1 X110.102 Y104.009 F7800.000
G1 X80.327 Y102.884 F7800.000
G1 X80.647 Y103.204 E0.04429 F1080.000
G1 X81.560 Y103.204 E0.08919
G1 X80.010 Y101.654 E0.21427
G1 X79.692 Y100.424 E0.12413
G1 X82.473 Y103.204 E0.38425
G1 X83.386 Y103.204 E0.08919
G1 X79.375 Y99.194 E0.55424
G1 X79.058 Y97.964 E0.12413
G1 X84.298 Y103.204 E0.72422
G1 X85.211 Y103.204 E0.08919
G1 X78.740 Y96.734 E0.89420
G1 X78.423 Y95.503 E0.12413
G1 X86.124 Y103.204 E1.06419
